<?xml version="1.0" encoding="UTF-8"?>
<map version="1.10" tiledversion="1.12.0" orientation="orthogonal" renderorder="right-down" width="60" height="34" tilewidth="64" tileheight="64" infinite="0" nextlayerid="9" nextobjectid="370">
 <tileset firstgid="1" source="64x64.tsx"/>
 <tileset firstgid="22" source="256x256.tsx"/>
 <tileset firstgid="39" source="128x128.tsx"/>
 <tileset firstgid="65" source="bosque_64.tsx"/>
 <tileset firstgid="142" source="bosque_128.tsx"/>
 <tileset firstgid="219" source="bosque_256.tsx"/>
 <layer id="1" name="terreno" width="60" height="34">
  <data encoding="csv">
68,68,68,68,68,68,68,68,68,68,68,68,68,68,68,68,68,68,68,68,68,68,68,68,68,68,68,68,68,68,68,68,68,68,68,68,68,68,68,68,68,68,68,68,68,68,68,68,68,68,68,68,68,68,68,68,68,68,68,68,
68,68,68,68,68,68,68,68,68,68,68,68,68,68,68,68,68,68,68,68,68,68,68,68,68,68,68,68,68,68,68,68,68,68,68,68,68,68,68,68,68,68,68,68,68,68,68,68,68,68,68,68,68,68,68,68,68,68,68,68,
68,68,68,68,68,68,68,68,68,68,68,68,68,68,68,68,68,68,68,68,68,68,68,68,68,68,68,68,68,68,68,68,68,68,68,68,68,68,68,68,68,68,68,68,68,68,68,68,68,68,68,68,68,68,68,68,68,68,68,68,
68,68,68,68,68,68,68,68,68,68,68,68,68,68,68,68,68,68,68,68,68,68,68,68,68,68,68,68,68,68,68,68,68,68,68,68,68,68,68,68,68,68,68,68,68,68,68,68,68,68,68,68,68,68,68,68,68,68,68,68,
68,68,68,68,68,68,68,68,68,68,68,68,68,68,68,68,68,68,68,68,68,68,68,68,68,68,68,68,68,68,68,68,68,68,68,68,68,68,68,68,68,68,68,68,68,68,68,68,68,68,68,68,68,68,68,68,68,68,68,68,
68,68,68,68,68,68,68,68,68,68,68,68,68,68,68,68,68,68,68,68,68,68,68,68,68,68,68,68,68,68,68,68,68,68,68,68,68,68,68,68,68,68,68,68,68,68,68,68,68,68,68,68,68,68,68,68,68,68,68,68,
68,68,68,68,68,68,68,68,68,68,68,68,68,68,68,68,68,68,68,68,68,68,68,68,68,68,68,68,68,68,68,68,68,68,68,68,68,68,68,68,68,68,68,68,68,68,68,68,68,68,68,68,68,68,68,68,68,68,68,68,
68,68,68,68,68,68,68,68,68,68,68,68,68,68,68,68,68,68,68,68,68,68,68,68,68,68,68,68,68,68,68,68,68,68,68,68,68,68,68,68,68,68,68,68,68,68,68,68,68,68,68,68,68,68,68,68,68,68,68,68,
68,68,68,68,68,68,68,68,68,68,68,68,68,68,68,68,68,68,68,68,68,68,68,68,68,68,68,68,68,68,68,68,68,68,68,68,68,68,68,68,68,68,68,68,68,68,68,68,68,68,68,68,68,68,68,68,68,68,68,68,
68,68,68,68,68,68,68,68,68,68,68,68,68,68,68,68,68,68,68,68,68,68,68,68,68,68,68,68,68,68,68,68,68,68,68,68,68,68,68,68,68,68,68,68,68,68,68,68,68,68,68,68,68,68,68,68,68,68,68,68,
68,68,68,68,68,68,68,68,68,68,68,68,68,68,68,68,68,68,68,68,68,68,68,68,68,68,68,68,68,68,68,68,68,68,68,68,68,68,68,68,68,68,68,68,68,68,68,68,68,68,68,68,68,68,68,68,68,68,68,68,
68,68,68,68,68,68,68,68,68,68,68,68,68,68,68,68,68,68,68,68,68,68,68,68,68,68,68,68,68,68,68,68,68,68,68,68,68,68,68,68,68,68,68,68,68,68,68,68,68,68,68,68,68,68,68,68,68,68,68,68,
68,68,68,68,68,68,68,68,68,68,68,68,68,68,68,68,68,68,68,68,68,68,68,68,68,68,68,68,68,68,68,68,68,68,68,68,68,68,68,68,68,68,68,68,68,68,68,68,68,68,68,68,68,68,68,68,68,68,68,68,
68,68,68,68,68,68,68,68,68,68,68,68,68,68,68,68,68,68,68,68,68,68,68,68,68,68,68,68,68,68,68,68,68,68,68,68,68,68,68,68,68,68,68,68,68,68,68,68,68,68,68,68,68,68,68,68,68,68,68,68,
68,68,68,68,68,68,68,68,68,68,68,68,68,68,68,68,68,68,68,68,68,68,68,68,68,68,68,68,68,68,68,68,68,68,68,68,68,68,68,68,68,68,68,68,68,68,68,68,68,68,68,68,68,68,68,68,68,68,68,68,
68,68,68,68,68,68,68,68,68,68,68,68,68,68,68,68,68,68,68,68,68,68,68,68,68,68,68,68,68,68,68,68,68,68,68,68,68,68,68,68,68,68,68,68,68,68,68,68,68,68,68,68,68,68,68,68,68,68,68,68,
68,68,68,68,68,68,68,68,68,68,68,68,68,68,68,68,68,68,68,68,68,68,68,68,68,68,68,68,68,68,68,68,68,68,68,68,68,68,68,68,68,68,68,68,68,68,68,68,68,68,68,68,68,68,68,68,68,68,68,68,
68,68,68,68,68,68,68,68,68,68,68,68,68,68,68,68,68,68,68,68,68,68,68,68,68,68,68,68,68,68,68,68,68,68,68,68,68,68,68,68,68,68,68,68,68,68,68,68,68,68,68,68,68,68,68,68,68,68,68,68,
68,68,68,68,68,68,68,68,68,68,68,68,68,68,68,68,68,68,68,68,68,68,68,68,68,68,68,68,68,68,68,68,68,68,68,68,68,68,68,68,68,68,68,68,68,68,68,68,68,68,68,68,68,68,68,68,68,68,68,68,
68,68,68,68,68,68,68,68,68,68,68,68,68,68,68,68,68,68,68,68,68,68,68,68,68,68,68,68,68,68,68,68,68,68,68,68,68,68,68,68,68,68,68,68,68,68,68,68,68,68,68,68,68,68,68,68,68,68,68,68,
68,68,68,68,68,68,68,68,68,68,68,68,68,68,68,68,68,68,68,68,68,68,68,68,68,68,68,68,68,68,68,68,68,68,68,68,68,68,68,68,68,68,68,68,68,68,68,68,68,68,68,68,68,68,68,68,68,68,68,68,
68,68,68,68,68,68,68,68,68,68,68,68,68,68,68,68,68,68,68,68,68,68,68,68,68,68,68,68,68,68,68,68,68,68,68,68,68,68,68,68,68,68,68,68,68,68,68,68,68,68,68,68,68,68,68,68,68,68,68,68,
68,68,68,68,68,68,68,68,68,68,68,68,68,68,68,68,68,68,68,68,68,68,68,68,68,68,68,68,68,68,68,68,68,68,68,68,68,68,68,68,68,68,68,68,68,68,68,68,68,68,68,68,68,68,68,68,68,68,68,68,
68,68,68,68,68,68,68,68,68,68,68,68,68,68,68,68,68,68,68,68,68,68,68,68,68,68,68,68,68,68,68,68,68,68,68,68,68,68,68,68,68,68,68,68,68,68,68,68,68,68,68,68,68,68,68,68,68,68,68,68,
68,68,68,68,68,68,68,68,68,68,68,68,68,68,68,68,68,68,68,68,68,68,68,68,68,68,68,68,68,68,68,68,68,68,68,68,68,68,68,68,68,68,68,68,68,68,68,68,68,68,68,68,68,68,68,68,68,68,68,68,
68,68,68,68,68,68,68,68,68,68,68,68,68,68,68,68,68,68,68,68,68,68,68,68,68,68,68,68,68,68,68,68,68,68,68,68,68,68,68,68,68,68,68,68,68,68,68,68,68,68,68,68,68,68,68,68,68,68,68,68,
68,68,68,68,68,68,68,68,68,68,68,68,68,68,68,68,68,68,68,68,68,68,68,68,68,68,68,68,68,68,68,68,68,68,68,68,68,68,68,68,68,68,68,68,68,68,68,68,68,68,68,68,68,68,68,68,68,68,68,68,
68,68,68,68,68,68,68,68,68,68,68,68,68,68,68,68,68,68,68,68,68,68,68,68,68,68,68,68,68,68,68,68,68,68,68,68,68,68,68,68,68,68,68,68,68,68,68,68,68,68,68,68,68,68,68,68,68,68,68,68,
68,68,68,68,68,68,68,68,68,68,68,68,68,68,68,68,68,68,68,68,68,68,68,68,68,68,68,68,68,68,68,68,68,68,68,68,68,68,68,68,68,68,68,68,68,68,68,68,68,68,68,68,68,68,68,68,68,68,68,68,
68,68,68,68,68,68,68,68,68,68,68,68,68,68,68,68,68,68,68,68,68,68,68,68,68,68,68,68,68,68,68,68,68,68,68,68,68,68,68,68,68,68,68,68,68,68,68,68,68,68,68,68,68,68,68,68,68,68,68,68,
68,68,68,68,68,68,68,68,68,68,68,68,68,68,68,68,68,68,68,68,68,68,68,68,68,68,68,68,68,68,68,68,68,68,68,68,68,68,68,68,68,68,68,68,68,68,68,68,68,68,68,68,68,68,68,68,68,68,68,68,
68,68,68,68,68,68,68,68,68,68,68,68,68,68,68,68,68,68,68,68,68,68,68,68,68,68,68,68,68,68,68,68,68,68,68,68,68,68,68,68,68,68,68,68,68,68,68,68,68,68,68,68,68,68,68,68,68,68,68,68,
68,68,68,68,68,68,68,68,68,68,68,68,68,68,68,68,68,68,68,68,68,68,68,68,68,68,68,68,68,68,68,68,68,68,68,68,68,68,68,68,68,68,68,68,68,68,68,68,68,68,68,68,68,68,68,68,68,68,68,68,
68,68,68,68,68,68,68,68,68,68,68,68,68,68,68,68,68,68,68,68,68,68,68,68,68,68,68,68,68,68,68,68,68,68,68,68,68,68,68,68,68,68,68,68,68,68,68,68,68,68,68,68,68,68,68,68,68,68,68,68
</data>
 </layer>
 <layer id="2" name="caminos" width="60" height="34">
  <data encoding="csv">
0,0,0,0,0,0,0,0,0,0,0,0,0,0,0,0,0,0,0,0,0,0,0,0,0,0,0,0,0,0,0,0,0,0,0,0,0,0,0,0,0,0,0,0,0,0,0,0,0,0,0,0,0,0,0,0,0,0,0,0,
0,0,0,0,144,0,0,0,0,0,0,0,0,0,144,0,0,0,0,0,0,0,0,0,0,0,0,0,0,0,0,0,0,0,0,0,0,0,0,0,0,0,0,0,0,0,0,0,0,0,0,0,0,0,0,0,144,0,0,0,
0,0,0,0,144,0,0,0,0,0,0,0,0,0,144,0,0,0,0,0,0,0,0,0,0,0,0,0,0,0,0,0,0,0,0,0,0,0,0,0,0,0,217,0,145,0,145,0,145,0,218,0,0,0,0,0,144,0,0,0,
0,0,0,0,0,0,0,0,0,0,0,0,0,0,0,0,0,0,0,0,0,0,0,0,0,0,0,0,0,0,0,0,0,0,0,0,0,0,0,0,0,0,0,0,0,0,0,0,0,0,0,0,0,0,0,0,0,0,0,0,
0,0,0,0,142,0,145,0,145,0,145,0,145,0,147,0,145,0,145,0,145,0,145,0,145,0,145,0,145,0,145,0,145,0,145,0,145,0,145,0,146,0,143,0,0,0,0,0,0,0,144,0,0,0,0,0,144,0,0,0,
0,0,0,0,0,0,0,0,0,0,0,0,0,0,0,0,0,0,0,0,0,0,0,0,0,0,0,0,0,0,0,0,0,0,0,0,0,0,0,0,0,0,0,0,0,0,0,0,0,0,144,0,0,0,0,0,0,0,0,0,
0,0,0,0,0,0,0,0,0,0,0,0,0,0,144,0,0,0,0,0,0,0,0,0,0,0,0,0,0,0,0,0,0,0,0,0,0,0,0,0,142,0,218,0,0,0,0,0,0,0,144,0,0,0,0,0,144,0,0,0,
0,0,0,0,0,0,0,0,0,0,0,0,0,0,144,0,0,0,0,0,0,0,0,0,0,0,0,0,0,0,0,0,0,0,0,0,0,0,0,0,0,0,0,0,0,0,0,0,0,0,0,0,0,0,0,0,0,0,0,0,
0,0,0,0,0,0,0,0,0,0,0,0,0,0,144,0,0,0,0,0,0,0,0,0,0,0,0,0,0,0,0,0,0,0,0,0,0,0,0,0,0,0,142,0,145,0,145,0,145,0,147,0,145,0,145,0,143,0,0,0,
0,0,0,0,0,0,0,0,0,0,0,0,0,0,144,0,0,0,0,0,0,0,0,0,0,0,0,0,0,0,237,0,0,0,0,0,0,0,0,0,0,0,0,0,0,0,0,0,0,0,0,0,0,0,0,0,0,0,0,0,
0,0,0,0,0,0,0,0,0,0,0,0,0,0,144,0,0,0,0,0,0,0,0,0,0,0,0,0,0,0,0,0,0,0,0,0,0,0,0,0,0,0,0,0,0,0,0,0,0,0,144,0,0,0,0,0,0,0,0,0,
0,0,0,0,0,0,0,0,0,0,0,0,0,0,0,0,0,0,0,0,0,0,0,0,0,0,0,0,0,0,0,0,0,0,0,0,0,0,0,0,0,0,0,0,0,0,0,0,0,0,144,0,0,0,0,0,0,0,0,0,
0,0,0,217,0,145,0,146,0,145,0,145,145,0,143,0,0,0,0,0,0,0,0,0,0,0,0,0,0,0,0,0,0,0,0,0,0,0,0,0,0,0,0,0,0,0,0,0,0,0,0,0,0,0,0,0,0,0,0,0,
0,0,0,0,0,0,0,0,0,0,0,0,0,0,0,0,0,0,0,0,0,0,0,0,0,0,0,0,0,0,238,0,0,0,239,0,0,0,0,0,0,0,0,0,0,0,0,0,0,0,144,0,0,0,0,0,0,0,0,0,
0,217,0,143,0,0,0,144,0,0,0,0,0,0,0,0,0,0,0,0,0,0,0,0,0,0,0,0,0,0,0,0,0,0,0,0,0,0,0,0,0,0,0,0,0,0,0,0,0,0,0,0,0,0,0,0,0,0,0,0,
0,0,0,0,0,0,0,0,0,0,0,0,0,0,0,0,0,0,0,0,0,0,0,0,0,0,0,217,0,145,145,0,145,0,218,0,0,0,0,0,217,0,145,0,145,0,145,0,145,0,2684354706,0,0,0,0,0,0,0,0,0,
0,144,0,0,0,0,0,144,0,0,0,0,0,0,0,0,0,0,0,0,0,0,0,0,0,0,0,0,0,0,0,0,0,0,0,0,0,0,0,0,0,0,0,0,0,0,0,0,0,0,0,0,0,0,0,0,0,0,0,0,
0,0,0,0,0,0,0,0,0,0,0,0,0,160,0,0,0,0,0,0,0,0,0,0,0,0,0,144,0,0,0,0,0,0,144,0,0,0,0,0,144,0,0,0,0,0,0,0,0,0,144,0,0,0,0,0,0,0,0,0,
0,144,0,0,0,0,0,144,0,0,0,0,0,0,0,0,0,0,0,0,0,0,0,0,0,0,0,0,0,0,0,0,0,0,0,0,0,0,0,0,0,0,0,0,0,0,0,0,0,0,0,0,0,0,0,0,0,0,0,0,
0,0,0,0,0,0,0,144,0,0,0,0,0,161,0,162,0,0,0,0,0,0,0,0,0,0,0,144,0,0,0,0,0,0,142,0,145,0,145,0,143,0,0,0,0,0,0,0,0,0,144,0,0,0,0,0,0,0,0,0,
0,144,0,0,0,0,0,0,0,0,0,0,0,0,0,0,0,0,0,0,0,0,0,0,0,0,0,0,0,0,0,0,0,0,0,0,0,0,0,0,0,0,0,0,0,0,0,0,0,0,0,0,0,0,0,0,0,0,0,0,
0,0,0,160,0,0,0,1610612882,0,145,0,145,0,145,0,145,0,146,0,145,145,145,145,145,145,145,0,3221225618,0,145,0,218,0,0,0,0,0,0,0,0,0,0,0,0,0,0,0,0,0,0,142,0,145,0,145,0,218,0,0,0,
0,144,0,0,0,0,0,0,0,0,0,0,0,0,0,0,0,0,0,0,0,0,0,0,0,0,0,0,0,0,0,0,0,0,0,0,0,0,0,0,0,0,0,0,0,0,0,0,0,0,0,0,0,0,0,0,0,0,0,0,
0,0,0,161,0,162,0,144,0,0,0,0,0,0,0,0,0,144,0,0,0,0,0,0,0,0,0,0,0,0,0,144,0,0,0,0,0,0,0,0,0,0,0,0,0,0,0,0,0,0,0,0,0,0,0,0,144,0,0,0,
0,144,0,160,0,0,0,0,0,0,0,0,0,0,0,0,0,0,0,0,0,0,0,0,0,0,0,0,0,0,0,144,0,0,0,0,0,0,0,0,0,0,0,0,0,0,0,0,0,0,0,0,0,0,0,0,0,0,0,0,
0,0,0,0,0,0,0,144,0,0,0,0,0,0,0,0,0,144,0,0,0,0,0,0,0,0,0,0,0,0,0,144,0,0,0,0,0,0,0,0,0,0,0,0,0,0,0,0,0,0,0,0,217,0,145,0,143,0,0,0,
0,144,0,161,0,162,0,0,0,0,0,0,0,0,0,0,0,0,0,0,0,0,0,0,0,0,0,0,0,0,0,144,0,0,0,0,0,0,0,0,0,0,0,0,0,0,0,0,0,0,0,0,0,0,0,0,0,0,0,0,
0,0,0,160,0,0,0,1610612882,0,145,0,145,0,145,0,145,0,143,0,0,0,0,0,0,0,0,0,0,0,0,0,144,0,0,0,0,0,0,0,0,0,0,217,0,145,0,145,0,145,0,145,0,2684354706,0,0,0,0,0,0,0,
0,144,0,0,0,0,0,0,0,0,0,0,0,0,0,0,0,0,0,0,0,0,0,0,0,0,0,0,0,0,0,0,0,0,0,0,0,0,0,0,0,0,0,0,0,0,0,0,0,0,0,0,0,0,0,0,0,0,0,0,
0,0,0,161,0,162,0,144,0,0,0,0,0,0,0,0,0,0,0,0,0,0,0,0,0,0,0,0,0,0,0,142,0,145,145,0,145,0,145,0,145,0,143,0,0,0,0,0,0,0,0,0,142,0,145,0,145,0,218,0,
0,144,0,0,0,0,0,144,0,0,0,0,0,0,0,0,0,0,0,0,0,0,0,0,0,0,0,0,0,0,0,0,0,0,0,0,0,0,0,0,0,0,0,0,0,0,0,0,0,0,0,0,0,0,0,0,0,0,0,0,
0,0,0,0,0,0,0,0,0,0,0,0,0,0,0,0,0,0,0,0,0,0,0,0,0,0,0,0,0,0,0,0,0,0,0,0,0,0,0,0,0,0,0,0,0,0,0,0,0,0,0,0,0,0,0,0,0,0,144,0,
0,142,0,145,0,145,0,143,0,0,0,0,0,0,0,0,0,0,0,0,0,0,0,0,0,0,0,0,0,0,0,0,0,0,0,0,0,0,0,0,0,0,0,0,0,0,0,0,0,0,0,0,0,0,0,0,0,0,0,0,
0,0,0,0,0,0,0,0,0,0,0,0,0,0,0,0,0,0,0,0,0,0,0,0,0,0,0,0,0,0,0,0,0,0,0,0,0,0,0,0,0,0,0,0,0,0,0,0,0,0,0,0,0,0,0,0,0,0,144,0
</data>
 </layer>
 <layer id="6" name="rio" width="60" height="34">
  <data encoding="csv">
0,0,0,0,0,0,0,0,0,0,0,0,0,0,0,0,0,0,0,0,0,0,0,0,0,0,0,0,0,0,0,0,0,0,0,0,0,0,0,0,0,0,0,0,0,0,0,0,0,0,0,0,0,0,0,0,0,0,0,0,
0,0,0,0,0,0,0,0,0,0,0,0,0,0,0,0,0,0,0,0,0,0,0,0,0,0,0,0,0,0,0,0,0,0,0,159,0,0,0,0,0,0,0,0,0,0,0,0,0,0,0,0,0,0,0,0,0,0,0,0,
0,0,0,0,0,0,0,0,0,0,0,0,0,0,0,0,0,0,0,0,0,0,0,0,0,0,0,0,0,0,0,0,0,0,0,0,0,0,0,0,0,0,0,0,0,0,0,0,0,0,0,0,0,0,0,0,0,0,0,0,
155,0,0,0,0,0,0,0,0,0,0,0,0,0,0,0,0,0,0,0,0,0,0,0,0,0,0,0,0,0,0,0,0,0,0,159,0,0,0,0,0,0,0,0,0,0,0,0,0,0,0,0,0,0,0,0,0,0,0,0,
0,0,0,0,0,0,0,0,0,0,0,0,0,0,0,0,0,0,0,0,0,0,0,0,0,0,0,0,0,0,0,0,0,0,0,0,0,0,0,0,0,0,0,0,0,0,0,0,0,0,0,0,0,0,0,0,0,0,0,0,
156,0,155,0,0,0,0,0,0,0,0,0,0,0,0,0,0,0,0,0,0,0,0,0,0,0,0,0,0,0,0,0,0,0,0,159,0,0,0,0,0,0,0,0,0,0,0,0,0,0,0,0,0,0,0,0,0,0,0,0,
0,0,0,0,0,0,0,0,0,0,0,0,0,0,0,0,0,0,0,0,0,0,0,0,0,0,0,0,0,0,0,0,0,0,0,0,0,0,0,0,0,0,0,0,0,0,0,0,0,0,0,0,0,0,0,0,0,0,0,0,
0,0,156,0,158,0,158,0,155,0,0,0,0,0,0,0,0,0,0,0,0,0,0,0,0,0,0,0,0,0,0,0,0,0,0,159,0,0,0,0,0,0,0,0,0,0,0,0,0,0,0,0,0,0,0,0,0,0,0,0,
0,0,0,0,0,0,0,0,0,0,0,0,0,0,0,0,0,0,0,0,0,0,0,0,0,0,0,0,0,0,0,0,0,0,0,0,0,0,0,0,0,0,0,0,0,0,0,0,0,0,0,0,0,0,0,0,0,0,0,0,
0,0,0,0,0,0,0,0,156,0,155,0,0,0,0,0,0,0,0,0,0,0,0,0,0,0,0,0,0,0,0,0,0,0,0,156,0,158,0,158,0,158,0,155,0,0,0,0,0,0,0,0,0,0,0,0,0,0,0,0,
0,0,0,0,0,0,0,0,0,0,0,0,0,0,0,0,0,0,0,0,0,0,0,0,0,0,0,0,0,0,0,0,0,0,0,0,0,0,0,0,0,0,0,0,0,0,0,0,0,0,0,0,0,0,0,0,0,0,0,0,
0,0,0,0,0,0,0,0,0,0,159,0,0,0,0,0,0,0,0,0,0,0,0,0,0,0,0,0,0,0,0,0,0,0,0,0,0,0,0,0,0,0,0,156,0,155,0,0,0,0,0,0,0,0,0,0,0,0,0,0,
0,0,0,0,0,0,0,0,0,0,0,0,0,0,0,0,0,0,0,0,0,0,0,0,0,0,0,0,0,0,0,0,0,0,0,0,0,0,0,0,0,0,0,0,0,0,0,0,0,0,0,0,0,0,0,0,0,0,0,0,
0,0,0,0,0,0,0,0,0,0,159,0,0,0,0,0,0,0,0,0,0,0,0,0,0,0,0,0,0,0,0,0,0,0,0,0,0,0,0,154,0,158,0,158,0,157,0,0,0,0,0,0,0,0,0,0,0,0,0,0,
0,0,0,0,0,0,0,0,0,0,0,0,0,0,0,0,0,0,0,0,0,0,0,0,0,0,0,0,0,0,0,0,0,0,0,0,0,0,0,0,0,0,0,0,0,0,0,0,0,0,0,0,0,0,0,0,0,0,0,0,
0,0,0,0,0,0,0,0,0,0,159,0,0,0,0,0,0,0,0,0,0,0,0,0,0,0,0,0,0,0,0,0,0,0,0,0,0,154,0,157,0,0,0,0,0,0,0,0,0,0,0,0,0,0,0,0,0,0,0,0,
0,0,0,0,0,0,0,0,0,0,0,0,0,0,0,0,0,0,0,0,0,0,0,0,0,0,0,0,0,0,0,0,0,0,0,0,0,0,0,0,0,0,0,0,0,0,0,0,0,0,0,0,0,0,0,0,0,0,0,0,
0,0,0,0,0,0,0,0,0,0,159,0,0,0,0,0,0,0,0,0,0,0,0,0,0,0,0,0,0,0,0,0,0,0,0,0,0,159,0,0,0,0,0,0,0,0,0,0,0,0,0,0,0,0,0,0,0,0,0,0,
0,0,0,0,0,0,0,0,0,0,0,0,0,0,0,0,0,0,0,0,0,0,0,0,0,0,0,0,0,0,0,0,0,0,0,0,0,0,0,0,0,0,0,0,0,0,0,0,0,0,0,0,0,0,0,0,0,0,0,0,
0,0,0,0,0,0,0,0,0,0,159,0,0,0,0,0,0,0,0,0,0,0,0,0,0,0,0,0,0,0,0,0,0,0,0,0,0,159,0,0,0,0,0,0,0,0,0,0,0,0,0,0,0,0,0,0,0,0,0,0,
0,0,0,0,0,0,0,0,0,0,0,0,0,0,0,0,0,0,0,0,0,0,0,0,0,0,0,0,0,0,0,0,0,0,0,0,0,0,0,0,0,0,0,0,0,0,0,0,0,0,0,0,0,0,0,0,0,0,0,0,
0,0,0,0,0,0,0,0,0,0,159,0,0,0,0,0,0,0,0,0,0,0,0,0,0,0,0,0,0,0,0,0,0,0,0,154,0,157,0,0,0,0,0,0,0,0,0,0,0,0,0,0,0,0,0,0,0,0,0,0,
0,0,0,0,0,0,0,0,0,0,0,0,0,0,0,0,0,0,0,0,0,0,0,0,0,0,0,0,0,0,0,0,0,0,0,0,0,0,0,0,0,0,0,0,0,0,0,0,0,0,0,0,0,0,0,0,0,0,0,0,
0,0,0,0,0,0,0,0,0,0,156,0,155,0,0,0,0,0,0,0,0,0,0,0,0,0,0,0,0,0,0,0,0,154,0,157,0,0,0,0,0,0,0,0,0,0,0,0,0,0,0,0,0,0,0,0,0,0,0,0,
0,0,0,0,0,0,0,0,0,0,0,0,0,0,0,0,0,0,0,0,0,0,0,0,0,0,0,0,0,0,0,0,0,0,0,0,0,0,0,0,0,0,0,0,0,0,0,0,0,0,0,0,0,0,0,0,0,0,0,0,
0,0,0,0,0,0,0,0,0,0,0,0,156,0,155,0,0,0,0,0,0,0,0,0,0,0,0,0,0,0,0,0,0,156,0,155,0,0,0,0,0,0,0,0,0,0,0,0,0,0,0,0,0,0,0,0,0,0,0,0,
0,0,0,0,0,0,0,0,0,0,0,0,0,0,0,0,0,0,0,0,0,0,0,0,0,0,0,0,0,0,0,0,0,0,0,0,0,0,0,0,0,0,0,0,0,0,0,0,0,0,0,0,0,0,0,0,0,0,0,0,
0,0,0,0,0,0,0,0,0,0,0,0,0,0,159,0,0,0,0,0,0,0,0,0,0,0,0,0,0,0,0,0,0,0,0,159,0,0,0,0,0,0,0,0,0,0,0,0,0,0,0,0,0,0,0,0,0,0,0,0,
0,0,0,0,0,0,0,0,0,0,0,0,0,0,0,0,0,0,0,0,0,0,0,0,0,0,0,0,0,0,0,0,0,0,0,0,0,0,0,0,0,0,0,0,0,0,0,0,0,0,0,0,0,0,0,0,0,0,0,0,
0,0,0,0,0,0,0,0,0,0,0,0,0,0,159,0,0,0,0,0,0,0,0,0,0,0,0,0,0,0,0,0,0,0,0,159,0,0,0,0,0,0,0,0,0,0,0,0,0,0,0,0,0,0,0,0,0,0,0,0,
0,0,0,0,0,0,0,0,0,0,0,0,0,0,0,0,0,0,0,0,0,0,0,0,0,0,0,0,0,0,0,0,0,0,0,0,0,0,0,0,0,0,0,0,0,0,0,0,0,0,0,0,0,0,0,0,0,0,0,0,
0,0,0,0,0,0,0,0,0,0,0,0,0,0,159,0,0,0,0,0,0,0,0,0,0,0,0,0,0,0,0,0,0,0,0,159,0,0,0,0,0,0,0,0,0,0,0,0,0,0,0,0,0,0,0,0,0,0,0,0,
0,0,0,0,0,0,0,0,0,0,0,0,0,0,0,0,0,0,0,0,0,0,0,0,0,0,0,0,0,0,0,0,0,0,0,0,0,0,0,0,0,0,0,0,0,0,0,0,0,0,0,0,0,0,0,0,0,0,0,0,
0,0,0,0,0,0,0,0,0,0,0,0,0,0,159,0,0,0,0,0,0,0,0,0,0,0,0,0,0,0,0,0,0,0,0,159,0,0,0,0,0,0,0,0,0,0,0,0,0,0,0,0,0,0,0,0,0,0,0,0
</data>
 </layer>
 <layer id="5" name="decoracion" width="60" height="34">
  <data encoding="csv">
0,0,0,0,0,0,0,0,0,0,0,0,0,0,0,0,160,0,0,160,0,0,160,0,0,0,0,0,0,0,0,0,0,0,0,0,0,0,0,0,0,0,0,0,0,0,0,0,0,0,0,0,0,0,0,0,0,0,0,0,
0,0,0,0,0,0,0,0,0,0,0,0,0,0,0,0,0,0,0,0,0,0,0,0,0,0,0,0,167,0,168,0,169,0,0,0,0,0,0,0,0,0,0,0,0,0,0,0,0,0,0,0,0,0,0,0,0,0,0,0,
0,0,0,0,0,0,175,175,175,175,175,175,175,0,0,0,161,0,162,161,0,162,161,0,162,0,0,0,0,0,0,0,0,0,0,0,0,0,0,0,0,0,0,0,0,0,0,0,0,0,0,0,0,0,0,0,0,0,0,0,
0,0,0,0,0,0,0,0,0,0,0,0,0,0,0,0,0,0,0,0,0,0,0,0,0,0,0,0,170,0,171,0,172,0,0,0,0,0,0,0,0,0,0,0,237,0,0,0,0,0,0,0,0,0,0,0,0,0,0,0,
0,0,0,0,0,0,0,0,0,0,0,0,0,0,0,0,0,0,0,0,0,0,0,0,0,0,0,0,0,0,0,0,0,0,0,174,0,0,0,0,0,0,0,0,0,0,0,0,175,0,0,0,0,0,0,0,0,0,0,0,
0,0,0,0,0,0,0,0,0,0,0,0,0,0,0,0,160,0,0,0,0,0,0,0,0,0,0,0,0,0,0,0,0,0,0,0,0,0,0,0,0,0,0,0,0,0,0,0,0,0,0,0,264,0,0,0,0,0,0,0,
0,0,0,0,0,0,0,0,0,0,0,0,0,0,0,0,0,0,0,0,0,0,0,0,0,0,0,0,0,0,0,0,0,0,0,0,0,0,0,0,0,0,0,0,0,0,0,0,0,0,0,0,264,0,0,0,0,0,0,0,
0,0,0,0,0,0,0,0,0,0,0,160,0,0,0,0,161,0,162,0,0,0,0,0,0,0,0,0,0,0,0,0,0,0,280,0,0,0,0,0,0,0,0,0,238,0,0,0,239,0,0,0,0,0,0,0,0,0,0,0,
0,0,0,0,0,0,0,280,0,0,0,0,0,0,0,0,0,264,0,0,0,0,0,0,0,0,0,0,0,0,0,0,0,0,0,0,0,0,0,0,0,0,0,0,0,0,0,0,0,0,0,0,0,0,0,0,0,0,0,0,
0,252,0,0,0,0,0,0,0,0,0,161,0,162,0,0,0,0,0,0,0,0,0,0,0,0,0,0,0,0,0,0,0,0,0,0,0,0,0,0,0,0,0,0,0,0,0,0,0,0,0,0,0,0,0,0,0,0,0,0,
0,0,0,0,264,0,0,0,0,0,0,0,202,0,0,0,0,0,0,0,0,0,0,0,0,0,0,0,0,0,0,0,0,0,0,0,0,0,0,0,0,0,0,0,0,0,0,0,0,0,0,0,0,2147483885,0,0,0,0,0,0,
0,0,0,0,0,0,0,0,0,0,0,0,0,0,0,0,0,0,0,0,0,0,0,0,0,0,0,0,0,0,0,0,0,0,0,0,0,0,0,0,0,266,0,0,0,0,0,0,0,0,0,0,0,0,0,0,0,0,0,0,
0,0,0,0,0,0,0,0,0,0,174,0,0,0,160,0,0,0,0,0,0,0,0,0,0,0,0,0,0,0,0,0,0,0,0,0,0,280,0,0,0,0,0,0,0,0,0,0,0,0,0,0,0,0,0,0,0,0,0,0,
0,0,0,0,0,0,0,0,0,0,0,0,0,0,0,0,0,0,0,0,0,0,0,0,0,0,0,0,0,0,0,0,0,202,153,0,0,0,0,0,0,0,0,0,0,0,264,0,0,0,0,0,0,0,0,0,0,0,0,0,
0,0,0,0,0,0,0,0,0,0,0,0,0,0,161,0,162,0,0,0,0,0,0,0,0,279,0,0,0,0,0,153,0,0,0,0,0,0,0,0,0,0,0,0,0,0,0,0,0,2147483887,0,153,0,2147483886,0,153,0,0,0,0,
0,0,0,0,0,0,0,0,0,0,0,0,0,0,202,153,0,0,230,280,0,0,0,280,279,0,266,0,0,0,0,0,0,0,0,0,0,0,0,0,0,0,0,0,0,0,0,0,0,0,0,0,0,0,163,0,164,0,165,0,
0,0,0,0,0,0,0,0,0,0,0,0,0,0,0,0,0,0,0,0,0,0,0,0,0,0,0,0,0,0,0,0,0,0,0,0,0,0,0,0,0,0,0,0,0,0,0,0,0,0,0,0,0,0,0,0,0,0,0,0,
0,0,0,0,0,204,0,0,0,0,0,0,0,0,0,0,0,0,0,0,0,160,0,0,160,0,0,0,0,160,0,0,160,0,0,0,280,0,0,0,0,0,0,0,0,0,0,0,0,0,0,0,0,0,167,0,168,0,169,0,
0,0,0,0,0,0,0,0,0,0,0,0,0,0,0,252,0,0,0,0,0,0,0,0,0,0,0,0,0,0,0,0,0,0,0,0,0,0,0,0,0,0,0,0,0,0,0,0,0,0,0,0,0,0,0,0,0,0,0,0,
0,0,0,230,0,0,0,0,0,280,0,0,0,0,0,0,0,264,0,0,0,161,0,162,161,0,162,0,0,161,0,162,161,0,162,0,0,174,0,0,0,0,0,0,0,0,0,0,0,0,0,0,0,0,170,0,171,0,172,0,
0,0,0,0,0,0,0,0,0,0,0,0,0,202,0,153,0,0,0,0,0,0,0,0,0,0,0,0,0,0,0,0,0,0,0,0,0,0,0,0,0,0,0,0,0,0,0,0,0,0,0,0,0,0,0,0,0,0,0,0,
0,0,0,0,0,204,0,0,0,0,174,0,0,0,0,0,0,0,0,0,0,0,0,0,0,0,0,0,0,0,0,0,0,0,0,0,0,0,0,0,0,0,0,0,0,0,0,0,0,0,0,0,0,0,0,0,0,0,0,0,
0,0,0,230,0,0,0,0,0,0,0,0,0,0,0,0,0,0,0,0,0,0,0,0,0,0,0,0,0,0,0,0,0,0,0,0,0,0,0,0,0,0,0,0,0,0,0,0,0,0,0,0,0,0,0,0,0,0,0,0,
0,0,0,0,0,0,0,0,0,0,0,0,0,0,0,0,0,0,0,0,0,0,0,0,0,0,0,0,0,0,0,0,0,0,0,0,0,0,0,0,0,179,0,180,0,181,0,182,0,0,0,0,0,0,0,0,0,0,0,0,
0,0,0,0,0,204,0,0,0,0,0,0,0,0,0,0,0,0,0,0,160,0,0,0,0,0,0,0,0,0,0,0,0,0,0,0,0,0,0,0,0,0,0,0,0,0,0,0,0,0,0,0,0,0,0,0,0,0,0,0,
0,0,0,230,0,0,0,0,0,0,0,0,0,0,0,0,0,0,160,0,0,0,0,0,0,0,0,0,0,0,0,0,0,0,0,0,0,0,0,0,0,183,0,184,0,185,0,186,0,264,0,0,0,0,0,0,0,0,0,0,
0,0,0,0,0,0,0,0,0,0,0,0,0,0,0,0,0,0,0,0,161,0,162,2147483808,0,0,0,0,0,0,0,0,0,0,0,0,0,0,0,0,0,0,0,0,0,0,0,0,0,0,0,0,0,0,0,0,0,0,0,0,
0,0,0,0,0,204,0,0,0,0,0,0,0,0,174,0,0,0,161,0,162,0,0,0,0,0,0,0,0,0,0,0,0,0,0,0,0,0,0,0,0,0,0,0,0,0,0,0,0,0,0,0,0,0,0,0,0,0,0,0,
0,0,0,230,0,0,0,0,0,0,0,0,0,0,0,0,0,202,0,0,0,2147483810,0,2147483809,0,0,0,0,0,0,0,0,0,0,0,0,0,0,0,0,0,0,0,2147483885,0,0,0,0,0,0,0,0,0,0,0,0,0,0,0,0,
0,0,0,0,0,0,0,0,0,0,0,0,0,0,0,0,0,0,230,0,0,0,0,202,0,0,0,0,0,0,0,0,0,0,0,174,0,0,0,0,0,0,0,0,0,0,0,0,0,0,0,0,0,0,0,0,0,0,0,0,
0,0,0,0,0,0,0,0,0,0,0,0,0,0,0,0,0,0,0,0,0,0,0,0,0,0,0,0,0,0,0,0,0,0,0,0,0,0,0,0,0,0,0,0,0,0,0,0,0,0,0,0,0,0,0,0,0,0,0,0,
0,0,0,230,0,0,0,0,0,0,0,252,0,0,0,0,0,0,163,0,164,0,165,0,163,0,164,0,165,0,201,0,0,0,0,0,0,0,0,0,0,0,0,0,0,0,0,0,0,0,0,0,0,0,0,0,0,0,0,0,
0,0,0,0,0,0,0,0,0,0,0,0,0,0,0,0,0,279,0,0,0,0,0,0,279,0,0,0,0,0,0,0,0,0,0,0,0,0,0,2147483887,0,153,0,2147483886,0,153,0,0,0,0,0,0,0,0,0,0,0,0,0,0,
0,0,0,0,0,0,0,0,0,0,0,252,0,0,0,0,266,0,167,0,168,0,169,0,167,0,168,0,169,0,0,0,0,0,280,0,0,0,0,0,0,0,0,0,0,0,0,0,0,0,0,0,0,0,0,0,0,0,0,0
</data>
 </layer>
 <layer id="3" name="arboles" width="60" height="34">
  <data encoding="csv">
0,0,0,0,0,0,0,0,0,0,0,0,0,0,0,0,0,0,0,0,0,0,0,0,0,0,0,0,0,0,0,0,0,0,0,0,0,0,0,0,0,0,0,0,0,0,0,0,0,0,0,0,0,0,0,0,0,0,0,0,
0,0,0,0,0,0,176,176,176,176,176,176,176,0,0,0,0,0,0,0,0,0,0,0,0,0,0,0,0,0,0,0,0,0,0,0,0,0,0,0,0,0,0,0,0,0,0,0,0,0,0,0,0,0,0,0,0,0,0,0,
0,0,0,0,0,0,0,0,0,0,0,0,0,0,0,0,0,0,0,0,0,0,0,0,0,0,0,0,0,0,0,0,0,0,0,0,0,0,0,0,0,0,0,0,0,0,0,0,0,0,0,0,0,0,0,0,0,0,0,0,
0,0,0,0,0,0,0,0,0,0,0,0,0,0,0,0,0,0,0,0,0,0,0,0,0,0,0,0,0,0,0,0,0,0,0,0,0,0,0,0,0,0,0,0,0,0,0,0,0,0,0,0,252,0,0,0,0,0,0,0,
0,0,0,0,0,0,0,0,0,0,0,0,0,0,0,0,0,0,0,0,0,0,0,0,0,0,0,0,0,0,0,0,0,0,0,0,0,0,0,0,0,0,0,0,0,0,0,0,0,0,0,0,0,0,0,0,0,0,0,0,
0,0,0,0,0,0,0,0,0,0,0,0,0,0,0,0,0,0,0,0,0,0,0,0,0,0,0,0,0,0,0,0,0,0,0,0,0,0,0,0,0,0,0,175,0,0,0,0,0,0,0,0,0,0,0,0,0,0,0,0,
0,0,0,0,0,0,0,0,0,0,0,0,0,0,0,0,0,0,0,0,0,0,0,0,0,0,0,0,0,0,0,0,0,0,0,0,0,0,0,0,0,0,0,0,0,0,0,0,0,0,0,0,0,0,0,0,0,0,0,0,
0,0,0,0,0,0,0,0,0,0,0,0,0,0,0,0,0,0,240,0,0,0,241,0,0,0,242,0,0,0,243,0,0,0,0,0,0,0,0,0,0,0,0,0,0,0,0,0,0,0,0,0,0,0,0,0,0,0,0,0,
0,0,0,0,0,0,0,0,0,0,0,0,0,0,0,0,0,0,0,0,0,0,0,0,0,0,0,0,0,0,0,0,0,0,0,0,0,0,0,0,0,0,0,0,0,0,0,0,0,0,0,0,0,0,0,0,0,0,0,0,
0,0,0,0,0,0,0,0,0,0,0,0,0,0,0,0,0,0,0,0,0,0,0,0,0,0,0,0,0,0,0,0,0,0,0,0,0,0,0,0,0,0,0,0,0,0,0,0,0,0,0,0,0,0,0,0,0,0,0,0,
0,0,0,0,0,0,0,0,0,0,0,0,0,0,0,0,0,0,0,0,0,0,0,0,0,0,0,0,0,0,0,0,0,0,0,0,0,0,0,0,0,0,0,0,0,0,0,0,0,0,0,0,175,0,0,0,0,0,0,0,
252,0,0,0,0,0,0,0,0,0,0,0,0,0,0,0,0,0,244,0,0,0,245,0,0,0,246,0,0,0,0,0,0,0,0,0,0,0,0,0,0,253,0,0,0,0,0,0,0,0,0,0,0,0,0,0,252,0,0,0,
0,0,0,0,0,0,0,0,0,0,0,0,0,0,0,0,0,0,0,0,0,0,0,0,0,0,0,0,0,0,0,0,0,0,0,0,0,0,252,0,0,0,0,0,0,0,0,0,0,0,0,0,0,0,0,0,0,0,0,0,
0,0,0,0,0,0,0,0,0,0,0,0,0,0,0,0,0,0,0,0,0,0,0,0,0,0,0,0,253,0,0,0,0,0,0,0,0,0,0,0,0,0,0,0,0,0,0,0,0,0,0,0,0,0,0,0,0,0,0,0,
0,0,0,0,0,0,0,0,0,0,0,0,0,0,0,0,0,0,0,0,0,0,0,0,0,0,0,0,0,0,0,0,0,0,0,0,0,0,0,0,0,0,0,0,0,0,0,0,0,0,0,0,0,0,0,0,0,0,0,0,
0,0,0,160,0,0,0,0,0,0,0,0,0,0,0,0,0,0,247,0,0,0,248,0,0,0,249,0,0,0,0,0,0,0,0,0,0,0,0,0,0,0,0,0,0,0,0,0,0,0,0,0,0,0,0,0,0,0,0,0,
0,0,0,0,0,0,0,0,0,0,0,0,0,0,0,0,0,0,0,0,0,0,0,0,0,0,0,0,0,0,0,0,0,0,0,0,0,0,0,0,0,0,160,0,0,160,0,0,160,0,0,0,0,175,0,0,0,0,0,0,
0,0,0,161,0,162,0,0,0,0,0,0,0,0,0,0,0,0,0,0,0,0,0,0,0,0,0,0,0,0,0,0,0,0,0,0,0,0,0,0,0,0,0,0,0,0,0,0,0,0,0,0,0,0,0,0,0,0,0,0,
0,0,0,160,205,176,0,0,0,0,0,0,0,0,0,0,0,0,0,0,0,0,0,0,0,0,0,0,0,0,0,0,0,0,0,0,0,0,0,0,0,0,161,0,162,161,0,162,161,0,162,0,0,175,0,0,0,0,0,0,
0,0,0,0,0,0,0,0,0,0,0,0,0,0,0,0,0,0,0,0,0,0,0,0,0,0,0,0,0,0,0,0,0,0,0,0,0,0,0,0,160,0,0,0,0,0,0,0,0,0,0,0,0,0,175,0,0,0,0,0,
0,0,0,161,0,162,0,0,0,0,0,0,0,0,0,0,0,0,0,0,0,0,0,0,0,0,0,0,0,0,0,0,0,0,0,0,0,0,0,0,0,0,0,0,0,0,0,0,0,0,0,0,0,0,0,0,0,0,0,0,
0,0,0,0,205,176,0,0,0,0,0,0,0,0,0,0,0,0,0,0,0,0,0,0,0,0,0,0,0,0,0,0,0,0,0,0,0,0,0,0,161,0,162,0,0,0,0,175,175,0,0,0,0,0,0,0,0,0,0,0,
0,0,0,0,0,0,0,0,0,0,0,0,0,0,0,0,0,0,0,0,0,0,0,0,0,0,0,0,0,0,0,0,0,0,0,0,0,0,0,0,0,0,0,0,0,0,0,0,0,175,0,0,0,0,0,0,0,0,0,0,
0,0,0,0,0,0,0,0,0,0,0,0,0,0,0,0,0,0,0,0,0,0,0,0,0,0,0,0,192,0,193,0,0,0,0,0,0,0,0,0,0,0,0,0,0,0,0,0,0,0,0,0,0,0,0,0,0,0,0,0,
0,0,0,0,205,175,0,0,0,0,0,0,0,0,0,0,0,0,0,0,0,0,0,0,0,0,0,0,0,0,0,0,0,0,0,0,0,0,0,0,0,0,0,0,0,0,0,0,175,0,0,0,0,0,0,0,0,0,0,0,
0,0,0,0,0,0,0,0,0,0,0,0,0,0,0,0,0,0,0,0,0,0,252,0,0,0,0,0,194,0,195,0,0,0,0,0,0,252,0,0,0,0,0,0,0,0,0,0,0,0,0,0,0,0,0,0,0,0,0,0,
0,0,0,0,0,0,0,0,0,0,252,0,0,0,0,0,0,0,0,0,0,0,0,0,0,0,0,0,0,0,0,0,0,0,0,0,0,0,0,0,0,0,0,0,0,0,0,0,0,0,0,0,0,0,0,0,0,0,0,0,
0,0,0,0,205,175,0,0,0,0,0,0,0,0,0,0,0,176,0,0,0,176,0,0,0,0,0,0,196,0,197,0,0,0,0,0,0,0,0,0,0,0,0,0,0,0,0,0,0,0,0,0,0,0,0,0,0,0,0,0,
0,0,0,0,0,0,0,0,0,0,0,0,0,0,0,0,0,0,0,0,0,0,0,0,176,0,0,0,0,0,0,0,0,0,0,0,0,0,0,0,0,0,0,0,0,0,0,0,0,0,0,0,0,0,0,0,0,0,0,0,
0,0,0,0,0,0,0,0,0,0,0,0,0,0,0,0,0,0,0,0,0,0,0,0,0,0,0,0,198,0,199,0,0,0,0,0,0,0,0,0,0,0,0,0,0,0,0,0,0,0,0,0,0,0,0,0,0,0,0,0,
0,0,0,0,205,175,0,0,0,0,0,0,0,0,0,0,0,0,0,0,0,0,0,0,0,0,0,0,0,0,0,0,0,0,0,0,0,0,0,0,0,0,0,0,0,0,0,0,0,0,0,0,0,0,0,0,0,0,0,0,
0,0,0,0,0,0,0,0,0,252,0,0,0,0,0,0,0,0,0,0,0,0,0,0,0,0,0,0,200,0,0,0,0,0,0,0,0,175,0,175,0,0,0,0,0,0,0,0,0,207,0,208,0,209,0,210,0,0,0,0,
0,0,0,0,0,0,0,0,0,0,252,0,0,0,0,0,0,0,0,0,0,0,0,0,0,0,0,0,0,0,0,0,0,0,0,0,0,0,175,0,0,0,0,0,0,0,0,0,0,0,0,0,0,0,0,0,0,0,0,0,
0,0,0,0,0,0,0,0,0,0,0,0,0,0,0,0,0,0,0,0,0,0,0,0,0,0,0,0,0,0,0,0,0,0,0,0,0,0,0,0,0,0,0,0,0,0,0,0,0,211,0,212,0,213,0,214,0,0,0,0
</data>
 </layer>
 <objectgroup color="#aa0000" id="7" name="colisiones">
  <object id="223" type="destructible" x="3108" y="1040">
   <properties>
    <property name="hp" type="int" value="3"/>
   </properties>
   <polygon points="0,0 -26,52.5 -23.5,105 55,145 106.5,121 108,75 85,44.5"/>
  </object>
  <object id="224" type="destructible" x="2918" y="1039.5">
   <properties>
    <property name="hp" type="int" value="3"/>
   </properties>
   <polygon points="0,0 -26,52.5 -23.5,105 55,145 106.5,121 108,75 85,44.5"/>
  </object>
  <object id="225" type="destructible" x="2726" y="1041">
   <properties>
    <property name="hp" type="int" value="3"/>
   </properties>
   <polygon points="0,0 -26,52.5 -23.5,105 55,145 106.5,121 108,75 85,44.5"/>
  </object>
  <object id="226" type="destructible" x="2597.5" y="1233.5">
   <properties>
    <property name="hp" type="int" value="3"/>
   </properties>
   <polygon points="0,0 -26,52.5 -23.5,105 55,145 106.5,121 108,75 85,44.5"/>
  </object>
  <object id="227" type="destructible" x="2084.5" y="1104.17">
   <properties>
    <property name="hp" type="int" value="3"/>
   </properties>
   <polygon points="0,0 -26,52.5 -23.5,105 55,145 106.5,121 108,75 85,44.5"/>
  </object>
  <object id="228" type="destructible" x="1892.17" y="1104.83">
   <properties>
    <property name="hp" type="int" value="3"/>
   </properties>
   <polygon points="0,0 -26,52.5 -23.5,105 55,145 106.5,121 108,75 85,44.5"/>
  </object>
  <object id="229" type="destructible" x="1572.83" y="1104.5">
   <properties>
    <property name="hp" type="int" value="3"/>
   </properties>
   <polygon points="0,0 -26,52.5 -23.5,105 55,145 106.5,121 108,75 85,44.5"/>
  </object>
  <object id="230" type="destructible" x="1380.5" y="1104.17">
   <properties>
    <property name="hp" type="int" value="3"/>
   </properties>
   <polygon points="0,0 -26,52.5 -23.5,105 55,145 106.5,121 108,75 85,44.5"/>
  </object>
  <object id="231" type="destructible" x="868.5" y="1104.17">
   <properties>
    <property name="hp" type="int" value="3"/>
   </properties>
   <polygon points="0,0 -26,52.5 -23.5,105 55,145 106.5,121 108,75 85,44.5"/>
  </object>
  <object id="232" type="destructible" x="933.833" y="788.167">
   <properties>
    <property name="hp" type="int" value="3"/>
   </properties>
   <polygon points="0,0 -26,52.5 -23.5,105 55,145 106.5,121 108,75 85,44.5"/>
  </object>
  <object id="233" type="destructible" x="229.833" y="976.167">
   <properties>
    <property name="hp" type="int" value="3"/>
   </properties>
   <polygon points="0,0 -26,52.5 -23.5,105 55,145 106.5,121 108,75 85,44.5"/>
  </object>
  <object id="234" type="destructible" x="228.5" y="1165.5">
   <properties>
    <property name="hp" type="int" value="3"/>
   </properties>
   <polygon points="0,0 -26,52.5 -23.5,105 55,145 106.5,121 108,75 85,44.5"/>
  </object>
  <object id="235" type="destructible" x="227.167" y="1360.83">
   <properties>
    <property name="hp" type="int" value="3"/>
   </properties>
   <polygon points="0,0 -26,52.5 -23.5,105 55,145 106.5,121 108,75 85,44.5"/>
  </object>
  <object id="236" type="destructible" x="227.833" y="1553.5">
   <properties>
    <property name="hp" type="int" value="3"/>
   </properties>
   <polygon points="0,0 -26,52.5 -23.5,105 55,145 106.5,121 108,75 85,44.5"/>
  </object>
  <object id="237" type="destructible" x="228.5" y="1745.5">
   <properties>
    <property name="hp" type="int" value="3"/>
   </properties>
   <polygon points="0,0 -26,52.5 -23.5,105 55,145 106.5,121 108,75 85,44.5"/>
  </object>
  <object id="238" type="destructible" x="739.833" y="463.833">
   <properties>
    <property name="hp" type="int" value="3"/>
   </properties>
   <polygon points="0,0 -26,52.5 -23.5,105 55,145 106.5,121 108,75 85,44.5"/>
  </object>
  <object id="239" type="destructible" x="1060.83" y="335.833">
   <properties>
    <property name="hp" type="int" value="3"/>
   </properties>
   <polygon points="0,0 -26,52.5 -23.5,105 55,145 106.5,121 108,75 85,44.5"/>
  </object>
  <object id="240" type="destructible" x="1057.83" y="16.8333">
   <properties>
    <property name="hp" type="int" value="3"/>
   </properties>
   <polygon points="0,0 -26,52.5 -23.5,105 55,145 106.5,121 108,75 85,44.5"/>
  </object>
  <object id="241" type="destructible" x="1250.83" y="17.8333">
   <properties>
    <property name="hp" type="int" value="3"/>
   </properties>
   <polygon points="0,0 -26,52.5 -23.5,105 55,145 106.5,121 108,75 85,44.5"/>
  </object>
  <object id="242" type="destructible" x="1445.83" y="16.8333">
   <properties>
    <property name="hp" type="int" value="3"/>
   </properties>
   <polygon points="0,0 -26,52.5 -23.5,105 55,145 106.5,121 108,75 85,44.5"/>
  </object>
  <object id="243" type="destructible" x="1189.65" y="1615.8">
   <properties>
    <property name="hp" type="int" value="3"/>
   </properties>
   <polygon points="0,0 -26,52.5 -23.5,105 55,145 106.5,121 108,75 85,44.5"/>
  </object>
  <object id="244" type="destructible" x="1315.65" y="1551.14">
   <properties>
    <property name="hp" type="int" value="3"/>
   </properties>
   <polygon points="0,0 -26,52.5 -23.5,105 55,145 106.5,121 108,75 85,44.5"/>
  </object>
  <object id="245" type="destructible" x="1563.65" y="1681.14">
   <properties>
    <property name="hp" type="int" value="3"/>
   </properties>
   <polygon points="0,0 26,52.5 23.5,105 -55,145 -106.5,121 -108,75 -85,44.5"/>
  </object>
  <object id="246" type="destructible" x="1993.33" y="547.333">
   <properties>
    <property name="hp" type="int" value="3"/>
   </properties>
   <polygon points="0,0 168.667,82.6667 213.333,140.667 210.667,240.667 112.667,288 -48,206.667 -55.3333,105.333"/>
  </object>
  <object id="247" type="destructible" x="2890.3" y="165.515">
   <properties>
    <property name="hp" type="int" value="3"/>
   </properties>
   <polygon points="0,0 168.667,82.6667 213.333,140.667 210.667,240.667 112.667,288 -48,206.667 -55.3333,105.333"/>
  </object>
  <object id="248" type="destructible" x="3571.48" y="613">
   <properties>
    <property name="hp" type="int" value="3"/>
   </properties>
   <polygon points="0,0 -168.667,82.6667 -213.333,140.667 -210.667,240.667 -112.667,288 48,206.667 55.3333,105.333"/>
  </object>
  <object id="249" type="destructible" x="2935.48" y="1763">
   <properties>
    <property name="hp" type="int" value="3"/>
   </properties>
   <polygon points="0,0 -168.667,82.6667 -213.333,140.667 -210.667,240.667 -112.667,288 48,206.667 55.3333,105.333"/>
  </object>
  <object id="280" type="wall" x="669" y="637" width="68" height="771"/>
  <object id="281" type="wall" x="255.333" y="413.333" width="260.667" height="68"/>
  <object id="282" type="wall" x="924" y="1662.67" width="69.3333" height="513.333"/>
  <object id="284" type="wall" x="2269" y="-1" width="70" height="515"/>
  <object id="285" type="wall" x="2367.33" y="539.333" width="394.667" height="74"/>
  <object id="286" type="wall" x="2623.33" y="794.667" width="258.667" height="72"/>
  <object id="287" type="wall" x="2397" y="1022" width="69" height="260"/>
  <object id="288" type="wall" x="2271" y="1661" width="67" height="516"/>
  <object id="289" type="wall" x="2273.33" y="1660">
   <polygon points="0,0 -29.3333,-27.3333 -82,-44 -116,-82 -132,-132 -107.333,-181.333 -73.3333,-210 -22,-227.333 -2.66667,-248.667 2,-277.333 22,-310 59.3333,-340 102.667,-354 126,-378 194,-378.667 176.667,-336 143.333,-301.333 100,-284 68.6667,-270 60.6667,-252.667 60.6667,-232.667 41.3333,-198.667 6.66667,-169.333 -33.3333,-154 -50,-146.667 -60,-136 -63.3333,-125.333 -57.3333,-112.667 -46.6667,-98 -20,-90.6667 19.3333,-72 48,-42 62.6667,-4"/>
  </object>
  <object id="290" type="wall" x="2398.5" y="1019">
   <polygon points="0,0 8,-25 20.5,-43 36.5,-62 57.5,-77.5 80.5,-89.5 106,-97 119.5,-104.5 127,-115.5 129.5,-136.5 142.5,-165.5 162,-189 184,-207 211,-217 224,-223 224.5,-153 210,-146 197,-132.5 195.5,-118 184,-92 162.5,-57 135,-38 106,-26.5 89.5,-23 74.5,-12.5 66.5,0.5"/>
  </object>
  <object id="291" type="wall" x="2763.5" y="545">
   <polygon points="0,0 24.5,9 51.5,28 70,52 79.5,75.5 84.5,91 94,111 109.5,124.5 133.5,129 165.5,146.5 193,174.5 211,211.5 214.5,228.5 211,239 199.5,262.5 177.5,289.5 154,309.5 118,321.5 118.5,250.5 138,239.5 148.5,224.5 140,209.5 128.5,195 107.5,189.5 100,188 82,179.5 72,175.5 57.5,163 41.5,145.5 30.5,127.5 23.5,111 19,96 14,85 2.5,69"/>
  </object>
  <object id="292" type="wall" x="2272" y="514.333">
   <polygon points="0,0 3,18 16.3333,43.6667 32,63 54.6667,80.6667 93.6667,97.3333 94.6667,28 80.3333,21 76.6667,15 72,9.33333 67,-0.333333"/>
  </object>
  <object id="293" type="wall" x="671.5" y="1410">
   <polygon points="0,0 5,20.5 15,42 29,56.5 46,76 59,81 79,92.5 91,95 104,96.5 113,102 122,109.5 126,117.5 128,129.5 129.5,143.5 135.5,158.5 144.5,177 167.5,199.5 191.5,212 214,221.5 228,226 244.5,233.5 251,243 253,250.5 320,251 315.5,221.5 298.5,197.5 278.5,177 251,163.5 230.5,154.5 215.5,152.5 200.5,138.5 191,122 186,105.5 172,80.5 162,61 151.5,52 130,37 106,28.5 83,20.5 65,1"/>
  </object>
  <object id="294" type="wall" x="516" y="481">
   <polygon points="0,0 12,6.33333 23,25.6667 30.6667,45.6667 39.6667,69 53.6667,87.6667 72.6667,106.667 84.3333,115 102,123.333 119,130.333 129.667,128.667 136,131.667 143,140 153.667,154.333 219.667,154.667 218,141 213.333,135.667 214,128 199.333,107.333 188.333,95 164.667,75.6667 152.333,69.3333 140.333,61.6667 118.333,59.6667 100,42 90,14.6667 85,-0.666667 60,-36 44.6667,-46.6667 37.6667,-53.6667 27.6667,-60 0.333333,-67.3333"/>
  </object>
  <object id="295" type="wall" x="0.666667" y="222.667">
   <polygon points="0,0 12,5.33333 23.3333,20 30.6667,38 40.6667,63.3333 53.3333,84.6667 66,102 91.3333,120.667 110,128 129.333,132 141.333,136 153.333,150 157.333,166.667 162.667,181.333 172.667,204.667 182,220 198.667,230.667 213.333,244.667 238.667,255.333 251.333,260 254,192 246,189.333 240,179.333 232,175.333 229.333,166 222,143.333 216,131.333 210.667,120 204,107.333 193.333,95.3333 179.333,84.6667 162.667,74.6667 145.333,64.6667 127.333,60 113.333,58.6667 104.667,44 96.6667,30.6667 94,16 87.3333,-1.33333 76.6667,-12.6667 71.3333,-23.3333 61.3333,-33.3333 56.6667,-44 48.6667,-47.3333 35.3333,-54.6667 23.3333,-60 13.3333,-64 2.66667,-66 -0.666667,-66"/>
  </object>
  <object id="296" type="bridge" x="640.5" y="719" width="130.5" height="86"/>
  <object id="297" type="bridge" x="640.5" y="1292.33" width="130.5" height="86"/>
  <object id="301" type="bridge" x="898.5" y="1682.33" width="130.5" height="86"/>
  <object id="298" type="bridge" x="2367.17" y="1167" width="130.5" height="86"/>
  <object id="300" type="bridge" x="2239.17" y="1803" width="130.5" height="86"/>
  <object id="299" type="bridge" x="2237.83" y="205.667" width="130.5" height="86"/>
  <object id="303" type="wall" x="423.333" y="84" width="423.333" height="92"/>
  <object id="305" x="65" y="682.5" width="62.5" height="60.5"/>
  <object id="306" x="129" y="551" width="62.5" height="60.5"/>
  <object id="307" x="1025" y="1133" width="62.5" height="60.5"/>
  <object id="308" x="705" y="1639.67" width="62.5" height="60.5"/>
  <object id="309" x="638.333" y="1962.33" width="62.5" height="60.5"/>
  <object id="310" x="705" y="2027.67" width="62.5" height="60.5"/>
  <object id="311" x="767.667" y="2094.33" width="62.5" height="60.5"/>
  <object id="312" x="775.667" y="1959.67" width="62.5" height="60.5"/>
  <object id="313" x="1471.67" y="1581" width="62.5" height="60.5"/>
  <object id="314" x="1887.67" y="803.667" width="62.5" height="60.5"/>
  <object id="315" x="1775.67" y="682.333" width="62.5" height="60.5"/>
  <object id="316" x="2494.33" y="750.333" width="62.5" height="60.5"/>
  <object id="317" x="2722.33" y="675.667" width="62.5" height="60.5"/>
  <object id="318" x="3393" y="170.333" width="62.5" height="60.5"/>
  <object id="319" x="3393" y="170.333" width="62.5" height="60.5"/>
  <object id="320" x="3647.67" y="683.667" width="62.5" height="60.5"/>
  <object id="321" x="2431.67" y="1581" width="62.5" height="60.5"/>
  <object id="322" type="wall" x="2663" y="1526" width="100" height="43"/>
  <object id="323" type="wall" x="3038" y="1365" width="104" height="34"/>
  <object id="326" type="wall" x="2823" y="1585" width="47" height="37"/>
  <object id="327" type="wall" x="2926" y="1605" width="47" height="37"/>
  <object id="328" type="wall" x="3020" y="1548" width="47" height="37"/>
  <object id="330" type="wall" x="3101" y="1552" width="47" height="37"/>
  <object id="331" type="wall" x="2881" y="1479" width="47" height="37"/>
  <object id="333" type="wall" x="3164" y="1425" width="47" height="37"/>
  <object id="334" type="wall" x="3060" y="1462" width="47" height="37"/>
  <object id="335" type="wall" x="2950" y="1516" width="47" height="37"/>
  <object id="336" type="wall" x="3423.33" y="1174" width="36.6667" height="30.6667"/>
  <object id="337" type="wall" x="3488" y="1240" width="35.3333" height="28"/>
  <object id="338" type="wall" x="3500" y="1138" width="47.3333" height="36"/>
  <object id="339" type="wall" x="3611.33" y="1185.33" width="46.6667" height="36"/>
  <object id="340" type="wall" x="3422" y="1046" width="36.6667" height="29.3333"/>
  <object id="341" type="wall" x="3542.67" y="1077.33" width="42" height="36"/>
  <object id="342" type="wall" x="3569.33" y="1041.33" width="44.6667" height="38"/>
  <object id="343" type="wall" x="3634" y="1093.33" width="48.6667" height="36.6667"/>
  <object id="344" type="wall" x="3668" y="1036.67" width="42" height="38"/>
  <object id="345" type="wall" x="3710.67" y="1064" width="40" height="34.6667"/>
  <object id="347" type="wall" x="3752" y="1022" width="42.6667" height="34"/>
  <object id="348" type="wall" x="3770.67" y="1112" width="29.3333" height="28.6667"/>
  <object id="349" type="wall" x="3682.67" y="1133.33" width="33.3333" height="30.6667"/>
  <object id="351" type="wall" x="2400.67" y="2006" width="32.6667" height="30"/>
  <object id="352" type="wall" x="2464" y="2070" width="32.6667" height="30"/>
  <object id="353" type="wall" x="2528.67" y="2005.33" width="32.6667" height="30"/>
  <object id="355" type="wall" x="3202" y="2032.67">
   <polygon points="0,0 10,18 8.66667,28.6667 4,39.3333 1.33333,46 10,46.6667 44,50 58,62 71.3333,102 82,137.333 295.333,138.667 278,112 265.333,88 340,83.3333 324.667,49.3333 314,6 238.667,-2.66667 216.667,66 172.667,10"/>
  </object>
  <object id="357" type="wall" x="1180" y="2028" width="714.667" height="146.667"/>
  <object id="358" type="wall" x="1865.33" y="1520" width="89.3333" height="505.333"/>
  <object id="359" x="1314.67" y="514.667" width="536" height="138.667"/>
  <object id="360" x="1228" y="657.333" width="468" height="145.333"/>
  <object id="361" type="wall" x="1341.33" y="804" width="238.667" height="101.333"/>
  <object id="362" type="wall" x="1830.67" y="0" width="170.667" height="198.667"/>
  <object id="363" type="wall" x="2005.33" y="5.33333" width="149.333" height="128"/>
 </objectgroup>
 <objectgroup id="8" name="spawns">
  <object id="1" name="jugador" type="player" x="160" y="180">
   <properties>
    <property name="id" type="int" value="1"/>
   </properties>
   <point/>
  </object>
  <object id="369" name="jugador" type="player" x="560" y="2140.61">
   <properties>
    <property name="id" type="int" value="1"/>
   </properties>
   <point/>
  </object>
  <object id="2" name="jugador" type="player" x="3638.67" y="240.606">
   <properties>
    <property name="id" type="int" value="2"/>
   </properties>
   <point/>
  </object>
  <object id="4" name="jugador" type="player" x="3687.27" y="2129.58">
   <properties>
    <property name="id" type="int" value="4"/>
   </properties>
   <point/>
  </object>
  <object id="10" name="powerup" type="powerup" x="168.121" y="1364">
   <properties>
    <property name="kind" value="speed"/>
   </properties>
   <point/>
  </object>
  <object id="366" name="powerup" type="powerup" x="2640.85" y="718.545">
   <properties>
    <property name="kind" value="speed"/>
   </properties>
   <point/>
  </object>
  <object id="367" name="powerup" type="powerup" x="2898.42" y="1397.33">
   <properties>
    <property name="kind" value="speed"/>
   </properties>
   <point/>
  </object>
  <object id="368" name="powerup" type="powerup" x="1383.27" y="1818.55">
   <properties>
    <property name="kind" value="speed"/>
   </properties>
   <point/>
  </object>
  <object id="365" name="powerup" type="powerup" x="1104.48" y="1003.39">
   <properties>
    <property name="kind" value="speed"/>
   </properties>
   <point/>
  </object>
  <object id="364" name="powerup" type="powerup" x="1762.06" y="857.939">
   <properties>
    <property name="kind" value="speed"/>
   </properties>
   <point/>
  </object>
 </objectgroup>
</map>
